assets/static/svg/generic/icons/live-section/account.svg

<?xml version="1.0" encoding="UTF-8" standalone="no"?>
<!-- Generator: Adobe Illustrator 19.0.0, SVG Export Plug-In . SVG Version: 6.00 Build 0)  -->

<svg
   xmlns:dc="http://purl.org/dc/elements/1.1/"
   xmlns:cc="http://creativecommons.org/ns#"
   xmlns:rdf="http://www.w3.org/1999/02/22-rdf-syntax-ns#"
   xmlns:svg="http://www.w3.org/2000/svg"
   xmlns="http://www.w3.org/2000/svg"
   xmlns:sodipodi="http://sodipodi.sourceforge.net/DTD/sodipodi-0.dtd"
   xmlns:inkscape="http://www.inkscape.org/namespaces/inkscape"
   version="1.1"
   id="Capa_1"
   x="0px"
   y="0px"
   viewBox="0 0 64 64"
   xml:space="preserve"
   sodipodi:docname="account.svg"
   width="64"
   height="64"
   inkscape:version="0.92.5 (2060ec1f9f, 2020-04-08)"><metadata
   id="metadata49"><rdf:RDF><cc:Work
       rdf:about=""><dc:format>image/svg+xml</dc:format><dc:type
         rdf:resource="http://purl.org/dc/dcmitype/StillImage" /><dc:title /></cc:Work></rdf:RDF></metadata><defs
   id="defs47" /><sodipodi:namedview
   pagecolor="#ffffff"
   bordercolor="#666666"
   borderopacity="1"
   objecttolerance="10"
   gridtolerance="10"
   guidetolerance="10"
   inkscape:pageopacity="0"
   inkscape:pageshadow="2"
   inkscape:window-width="1920"
   inkscape:window-height="1019"
   id="namedview45"
   showgrid="false"
   showguides="true"
   inkscape:guide-bbox="true"
   inkscape:zoom="11.125147"
   inkscape:cx="-0.11004613"
   inkscape:cy="29.326956"
   inkscape:window-x="0"
   inkscape:window-y="29"
   inkscape:window-maximized="1"
   inkscape:current-layer="g12" />
<g
   id="g12"
   transform="translate(0,4)">
	
	
	
	
	
<path
   id="path2-6"
   transform="translate(0,-4)"
   d="M 32,1.4160156 C 15.135838,1.4160156 1.4160156,15.135838 1.4160156,32 1.4160156,48.864162 15.135838,62.583984 32,62.583984 48.864162,62.583984 62.583984,48.864162 62.583984,32 62.583984,15.135838 48.864162,1.4160156 32,1.4160156 Z m 0,2.0390625 c 15.739681,0 28.544922,12.8052409 28.544922,28.5449219 0,9.81828 -4.983087,18.494005 -12.552734,23.632812 C 46.215941,50.085263 41.63921,45.798422 35.929688,44.423828 41.199931,42.752716 45.03125,37.815608 45.03125,32 45.03125,24.815245 39.184755,18.96875 32,18.96875 c -7.184755,0 -13.03125,5.846495 -13.03125,13.03125 0,5.776836 3.782114,10.683573 8.998047,12.386719 -2.474686,0.524472 -4.859539,1.509087 -6.869141,2.904297 -2.830873,1.965394 -4.939925,4.801462 -5.273437,8.21289 C 8.3586214,50.349889 3.4550781,41.737968 3.4550781,32 3.4550781,16.260319 16.260319,3.4550781 32,3.4550781 Z m 0,17.4863279 c 6.119547,0 11.058594,4.939047 11.058594,11.058594 0,6.119547 -4.939047,11.058594 -11.058594,11.058594 -6.119547,0 -11.058594,-4.939047 -11.058594,-11.058594 0,-6.119547 4.939047,-11.058594 11.058594,-11.058594 z m -0.01172,25.019532 c 6.531147,0 11.96414,4.270438 13.933594,10.125 -0.941381,0.624265 -6.087521,3.912109 -13.931641,3.912109 -8.650204,0 -13.534307,-3.624413 -14.128906,-4.078125 0.195502,-2.819043 1.838642,-5.210217 4.382813,-6.976563 2.707051,-1.879428 6.340035,-2.982422 9.74414,-2.982421 z"
   style="fill-opacity:1;stroke-width:1.01947534;paint-order:markers fill stroke"
   inkscape:connector-curvature="0" /></g>
<g
   id="g14"
   transform="translate(0,4)">
</g>
<g
   id="g16"
   transform="translate(0,4)">
</g>
<g
   id="g18"
   transform="translate(0,4)">
</g>
<g
   id="g20"
   transform="translate(0,4)">
</g>
<g
   id="g22"
   transform="translate(0,4)">
</g>
<g
   id="g24"
   transform="translate(0,4)">
</g>
<g
   id="g26"
   transform="translate(0,4)">
</g>
<g
   id="g28"
   transform="translate(0,4)">
</g>
<g
   id="g30"
   transform="translate(0,4)">
</g>
<g
   id="g32"
   transform="translate(0,4)">
</g>
<g
   id="g34"
   transform="translate(0,4)">
</g>
<g
   id="g36"
   transform="translate(0,4)">
</g>
<g
   id="g38"
   transform="translate(0,4)">
</g>
<g
   id="g40"
   transform="translate(0,4)">
</g>
<g
   id="g42"
   transform="translate(0,4)">
</g>
</svg>

<?xml version="1.0" encoding="UTF-8" standalone="no"?>
<!-- Generator: Adobe Illustrator 19.0.0, SVG Export Plug-In . SVG Version: 6.00 Build 0)  -->

<svg
   xmlns:dc="http://purl.org/dc/elements/1.1/"
   xmlns:cc="http://creativecommons.org/ns#"
   xmlns:rdf="http://www.w3.org/1999/02/22-rdf-syntax-ns#"
   xmlns:svg="http://www.w3.org/2000/svg"
   xmlns="http://www.w3.org/2000/svg"
   xmlns:sodipodi="http://sodipodi.sourceforge.net/DTD/sodipodi-0.dtd"
   xmlns:inkscape="http://www.inkscape.org/namespaces/inkscape"
   version="1.1"
   id="Capa_1"
   x="0px"
   y="0px"
   viewBox="0 0 64 64"
   xml:space="preserve"
   sodipodi:docname="account.svg"
   width="64"
   height="64"
   inkscape:version="0.92.5 (2060ec1f9f, 2020-04-08)"><metadata
   id="metadata49"><rdf:RDF><cc:Work
       rdf:about=""><dc:format>image/svg+xml</dc:format><dc:type
         rdf:resource="http://purl.org/dc/dcmitype/StillImage" /><dc:title /></cc:Work></rdf:RDF></metadata><defs
   id="defs47" /><sodipodi:namedview
   pagecolor="#ffffff"
   bordercolor="#666666"
   borderopacity="1"
   objecttolerance="10"
   gridtolerance="10"
   guidetolerance="10"
   inkscape:pageopacity="0"
   inkscape:pageshadow="2"
   inkscape:window-width="1920"
   inkscape:window-height="1019"
   id="namedview45"
   showgrid="false"
   showguides="true"
   inkscape:guide-bbox="true"
   inkscape:zoom="15.733334"
   inkscape:cx="19.090734"
   inkscape:cy="36.169217"
   inkscape:window-x="0"
   inkscape:window-y="29"
   inkscape:window-maximized="1"
   inkscape:current-layer="g12" />
<g
   id="g12"
   transform="translate(0,4)">
	
	
	
	
	
<path
   id="path2-6"
   transform="translate(0,-4)"
   d="M 32 1.4160156 C 15.135838 1.4160156 1.4160156 15.135838 1.4160156 32 C 1.4160156 48.864162 15.135838 62.583984 32 62.583984 C 48.864162 62.583984 62.583984 48.864162 62.583984 32 C 62.583984 15.135838 48.864162 1.4160156 32 1.4160156 z M 32 3.4550781 C 47.739681 3.4550781 60.544922 16.260319 60.544922 32 C 60.544922 41.81828 55.561835 50.494005 47.992188 55.632812 C 46.215941 50.085263 41.63921 45.798422 35.929688 44.423828 C 41.199931 42.752716 45.03125 37.815608 45.03125 32 C 45.03125 24.815245 39.184755 18.96875 32 18.96875 C 24.815245 18.96875 18.96875 24.815245 18.96875 32 C 18.96875 37.776836 22.750864 42.683573 27.966797 44.386719 C 25.492111 44.911191 23.107258 45.895806 21.097656 47.291016 C 18.266783 49.25641 16.157731 52.092478 15.824219 55.503906 C 8.3586214 50.349889 3.4550781 41.737968 3.4550781 32 C 3.4550781 16.260319 16.260319 3.4550781 32 3.4550781 z M 32 20.941406 C 38.119547 20.941406 43.058594 25.880453 43.058594 32 C 43.058594 38.119547 38.119547 43.058594 32 43.058594 C 25.880453 43.058594 20.941406 38.119547 20.941406 32 C 20.941406 25.880453 25.880453 20.941406 32 20.941406 z M 31.988281 45.960938 C 38.519428 45.960938 43.952421 50.231376 45.921875 56.085938 C 44.980494 56.710203 39.834354 59.998047 31.990234 59.998047 C 23.34003 59.998047 18.455927 56.373634 17.861328 55.919922 C 18.05683 53.100879 19.69997 50.709705 22.244141 48.943359 C 24.951192 47.063931 28.584176 45.960937 31.988281 45.960938 z "
   style="fill-opacity:1;stroke-width:1.01947534;paint-order:markers fill stroke;fill:#000000" /></g>
<g
   id="g14"
   transform="translate(0,4)">
</g>
<g
   id="g16"
   transform="translate(0,4)">
</g>
<g
   id="g18"
   transform="translate(0,4)">
</g>
<g
   id="g20"
   transform="translate(0,4)">
</g>
<g
   id="g22"
   transform="translate(0,4)">
</g>
<g
   id="g24"
   transform="translate(0,4)">
</g>
<g
   id="g26"
   transform="translate(0,4)">
</g>
<g
   id="g28"
   transform="translate(0,4)">
</g>
<g
   id="g30"
   transform="translate(0,4)">
</g>
<g
   id="g32"
   transform="translate(0,4)">
</g>
<g
   id="g34"
   transform="translate(0,4)">
</g>
<g
   id="g36"
   transform="translate(0,4)">
</g>
<g
   id="g38"
   transform="translate(0,4)">
</g>
<g
   id="g40"
   transform="translate(0,4)">
</g>
<g
   id="g42"
   transform="translate(0,4)">
</g>
</svg>
